X:1
T:Sangerafsked
T:Sangerafsked
T:Bind 1, No. 11
T:Franz Abt
T:L. Dietrichson
C:Fr. Abt.
Z:L. Dietrichson
%%score [ 1 2 3 4 ]
L:1/8
Q:1/4=74
M:3/4
K:F
V:1 treble-8 nm="T1"
V:2 treble-8 nm="T2"
V:3 bass nm="B1"
V:4 bass nm="B2"
V:1
"^Andantino"!mf!"^Helt kor" c f e | d3/2 e/ f2 d2 | d2 c2 c2 | c3/2 B/ A2 (d>B) | %4
w: 1.Nys sej- led|vi en sol- blank|Ti- me her-|ind med Ju- bel- *|
w: 2.Snart gli- de|vi, mens Maa- nen|rin- der, hjem-|ad paa nat- lig _|
w: 3.Saa lad kun|Af- skeds- stun- den|bre- de sin|Skum- ring om vor _|
 G2 z!<(! G c e!<)! | e3/2 d/ !>!g3 d | f2 e2!f! (fd) | g3/2 c/ e2 d2 | c4!mf!"^Halvt kor" c2 | %9
w: kor og hør- te|Pint- se- klok- ker|ki- me rundt *|om den dy- be|Fjord. Og|
w: Sti; af Dag som|svandt, skjød stil- le|Min- der med *|Ord og Ma- lo-|di. Men,|
w: Sjæl, den spren- ges|ej vor Bro- der-|kjæ- de ved *|Klan- gen af Far-|vel. Som|
 !>!f3 A d3/2 c/ | c2 B2 B2 | g4 B2 | A2 z!<(! A B c!<)! |"^cresc." (dc de) (fg) | a2 f2 g2 | %15
w: Løv og Li- er|kran- sed vor|Færd saa|smukt, paa Bøl- gen|Sol- * * * skin _|dan- sed til|
w: som paa Bøl- ge-|grun- den Sølv-|maa- nens|Pragt, staar nu til|San- * * * gen _|bun- den vor|
w: gla- de Træk- fugl-|ska- re vi|bort nu|fly, fra Sang til|Sang _ _ _ vi _|fa- re; Vel-|
 f4 g2 | a4"^Helt kor"!f! c2 | !>!f3 A d3/2 c/ | c2 B2 B2 | g4 B2 | A2 z!<(! A B c!<)! | %21
w: To- nens|Flugt. Ja,|Løv og Li- er|kran- sed vor|Færd saa|smukt, paa Bøl- gen|
w: Bro- der-|pagt. Ja,|som paa Bøl- ge-|grun- den Sølv-|maa- nens|Pragt staar nu til|
w: mødt paa-|ny! Som|gla- de Træk- fugl-|ska- re vi|bort nu|fly, fra Sang til|
 (dc de) (fg) | a2 f2 g2 |!ff! f4 e2 | !fermata!f2 z |] %25
w: Sol- * * * skin _|dan- sed til|To- nens|Flugt.|
w: San- * * * gen _|bun- den vor|Bro- der-|pagt.|
w: Sang _ _ _ vi _|fa- re; Vel-|mødt paa-|ny!|
V:2
!mf! c c c | B3/2 B/ B2 B2 | B2 A2 A2 | A3/2 G/ F2 (F>G) | G2 z!<(! G G c!<)! | c3/2 =B/ !>!d3 d | %6
w: 1.Nys sej- led|vi en sol- blank|Ti- me her-|ind med Ju- bel- *|kor og hør- te|Pint- se- klok- ker|
w: 2.Snart gli- de|vi, mens Maa- nen|rin- der, hjem-|ad paa nat- lig _|Sti; af Dag som|svandt, skjød stil- le|
w: 3.Saa lad kun|Af- skeds- stun- den|bre- de sin|Skum- ring om vor _|Sjæl, den spren- ges|ej vor Bro- der-|
 d2 c2!f! A2 | c3/2 c/ c2 =B2 | G4!mf! c2 | !>!c3 A B3/2 A/ | A2 G2 G2 | B4 G2 | %12
w: ki- me rundt|om den dy- be|Fjord. Og|Løv og Li- er|kran- sed vor|Færd saa|
w: Min- der med|Ord og Ma- lo-|di. Men,|som paa Bøl- ge-|grun- den Sølv-|maa- nens|
w: kjæ- de ved|Klan- gen af Far-|vel. Som|gla- de Træk- fugl-|ska- re vi|bort nu|
 F2 z!<(! F G A!<)! |"^cresc." (BA Bc) c2 | c2 d2 d2 | c4 e2 | f4!f! c2 | !>!c3 A B3/2 A/ | %18
w: smukt, paa Bøl- gen|Sol- * * * skin|dan- sed til|To- nens|Flugt. Ja,|Løv og Li- er|
w: Pragt, staar nu til|San- * * * gen|bun- den vor|Bro- der-|pagt. Ja,|som paa Bøl- ge-|
w: fly, fra Sang til|Sang _ _ _ vi|fa- re; Vel-|mødt paa-|ny! Som|gla- de Træk- fugl-|
 A2 G2 G2 | B4 G2 | F2 z!<(! F G A!<)! | (BA Bc) c2 | c2 d2 d2 |!ff! c4 c2 | !fermata!c2 z |] %25
w: kran- sed vor|Færd saa|smukt, paa Bøl- gen|Sol- * * * skin|dan- sed til|To- nens|Flugt.|
w: grun- den Sølv-|maa- nens|Pragt staar nu til|San- * * * gen|bun- den vor|Bro- der-|pagt.|
w: ska- re vi|bort nu|fly, fra Sang til|Sang _ _ _ vi|fa- re; Vel-|mødt paa-|ny!|
V:3
!mf! A, A, F, | F,3/2 F,/ F,2 F,2 | F,2 F,2 F,2 | E,3/2 E,/ F,2 (F,>G,) | E,2 z!<(! G, G, G,!<)! | %5
w: 1.Nys sej- led|vi en sol- blank|Ti- me her-|ind med Ju- bel- *|kor og hør- te|
w: 2.Snart gli- de|vi, mens Maa- nen|rin- der, hjem-|ad paa nat- lig _|Sti; af Dag som|
w: 3.Saa lad kun|Af- skeds- stun- den|bre- de sin|Skum- ring om vor _|Sjæl, den spren- ges|
 G,3/2 G,/ !>!=B,3 G, | G,2 G,2!f! F,2 | E,3/2 E,/ G,2 F,2 | E,4!mf! B,2 | !>!A,3 F, F,3/2 F,/ | %10
w: Pint- se- klok- ker|ki- me rundt|om den dy- be|Fjord. Og|Løv og Li- er|
w: svandt, skjød stil- le|Min- der med|Ord og Ma- lo-|di. Men,|som paa Bøl- ge-|
w: ej vor Bro- der-|kjæ- de ved|Klan- gen af Far-|vel. Som|gla- de Træk- fugl-|
 C2 C,2 C,2 | C4 E,2 | F,2 z2 z F, |"^cresc." B, F, B,2 (A,B,) | A,2 A,2 B,2 | A,4 C2 | C4!f! C2 | %17
w: kran- sed vor|Færd saa|smukt, paa|Bøl- gen Sol- skin _|dan- sed til|To- nens|Flugt. Ja,|
w: grun- den Sølv-|maa- nens|Pragt, staar|nu til San- gen _|bun- den vor|Bro- der-|pagt. Ja,|
w: ska- re vi|bort nu|fly, fra|Sang til Sang vi _|fa- re; Vel-|mødt paa-|ny! Som|
 !>!A,3 F, F,3/2 F,/ | C2 C,2 C,2 | C4 E,2 | F,2 z2 z F, | B, F, B,2 (A,B,) | A,2 A,2 B,2 | %23
w: Løv og Li- er|kran- sed vor|Færd saa|smukt, paa|Bøl- gen Sol- skin _|dan- sed til|
w: som paa Bøl- ge-|grun- den Sølv-|maa- nens|Pragt staar|nu til San- gen _|bun- den vor|
w: gla- de Træk- fugl-|ska- re vi|bort nu|fly, fra|Sang til Sang vi _|fa- re; Vel-|
!ff! A,4 G,2 | !fermata!A,2 z |] %25
w: To- nens|Flugt.|
w: Bro- der-|pagt.|
w: mødt paa-|ny!|
V:4
!mf! F, F, A,, | B,,3/2 C,/ D,2 B,,2 | F,2 F,,2 z2 | z z/ C,/ F,3/2 D,/ B,,3/2 G,,/ | %4
w: 1.Nys sej- led|vi en sol- blank|Ti- me|her- ind med Ju- bel-|
w: 2.Snart gli- de|vi, mens Maa- nen|rin- der,|hjem- ad paa nat- lig|
w: 3.Saa lad kun|Af- skeds- stun- den|bre- de|sin Skum- ring om vor|
 C,2 z!<(! G, E, C,!<)! | G,,3/2 G,,/ !>!G,3 =B,, | C,2 C,2!f! F,2 | G,3/2 G,/ G,2 G,,2 | %8
w: kor og hør- te|Pint- se- klok- ker|ki- me rundt|om den dy- be|
w: Sti; af Dag som|svandt, skjød stil- le|Min- der med|Ord og Ma- lo-|
w: Sjæl, den spren- ges|ej vor Bro- der-|kjæ- de ved|Klan- gen af Far-|
 C,4!mf! C,2 | !>!F,,3 F, F,3/2 F,/ | C,2 C,2 C,2 | C,4 C,2 | F,,2 z2 z F, | %13
w: Fjord. Og|Løv og Li- er|kran- sed vor|Færd saa|smukt, paa|
w: di. Men,|som paa Bøl- ge-|grun- den Sølv-|maa- nens|Pragt, staar|
w: vel. Som|gla- de Træk- fugl-|ska- re vi|bort nu|fly, fra|
"^cresc." B, F, (B,G,) (F,E,) | F,2 D,2 B,,2 | C,4 C,2 | F,4!f! C2 | !>!F,3 F, F,3/2 F,/ | %18
w: Bøl- gen Sol- * skin _|dan- sed til|To- nens|Flugt. Ja,|Løv og Li- er|
w: nu til San- * gen _|bun- den vor|Bro- der-|pagt. Ja,|som paa Bøl- ge-|
w: Sang til Sang _ vi _|fa- re; Vel-|mødt paa-|ny! Som|gla- de Træk- fugl-|
 C,2 C,2 C,2 | C,4 C,2 | F,,2 z2 z F, | B, F, (B,G,) (F,E,) | F,2 D,2 B,,2 |!ff! C,4 C,2 | %24
w: kran- sed vor|Færd saa|smukt, paa|Bøl- gen Sol- * skin _|dan- sed til|To- nens|
w: grun- den Sølv-|maa- nens|Pragt staar|nu til San- * gen _|bun- den vor|Bro- der-|
w: ska- re vi|bort nu|fly, fra|Sang til Sang _ vi _|fa- re; Vel-|mødt paa-|
 !fermata!F,,2 z |] %25
w: Flugt.|
w: pagt.|
w: ny!|

